X: 15368
T: Glasgow Of The Big Shops
R: reel
M: 4/4
K: Amixolydian
|:a2ge aAAc|(3ddd fg e3d|(3ccc Bc decA|1 B2AG G2Bd:|2 B2AG A4||
|:e2dB c3d|eedB cAAB|cABc decA|1 B2AG G2Bd:|2 B2AG Adeg||

